!!!OTL: 1009. Zu Lauterbach.
!!!ARE: Europa, Mitteleuropa, Deutschland, Sueddeutschland
!!!SCT: E1009
!!!TXL: @@DE
!!!YEM: Copyright 1995, estate of Helmut Schaffrath.
**kern	**text
*ICvox	*
*M3/4	*
*k[f#]	*
*G:	*
!LO:TX:a:t=Lustig.	!
!LO:TX:a:t=Mel. aus Thüringen, Heſſen, Naſſau u. den Rheinlanden. Vor 1820 entſtanden.	!
{4d	Ʒu
=1	=1
4.dd	Lauterbach
8dd	.
4b	.
=2	=2
4g	hab
4g	ich
4g	mein
=3	=3
2a	Strumpf
4d	verlorn,
=4	=4
2d}	.
{4d	und
=5	=5
4.ee	oh-
8dd	-ne
4cc	Strumpf
=6	=6
4cc	geh
4b	ich
4a	nit
=7	=7
[2.dd	heim,
=8	=8
4dd]	.
4r}	.
{4d	drum
=9	=9
4.dd	geh
8dd	ich
4b	erſt
=10	=10
4g	wieder
4g	.
4g	nach
=11	=11
2a	Lau-
4d	-ter-
=12	=12
2d}	-bach
{4d	und
=13	=13
4.ff#	hol
8ee	mir
4dd	den
=14	=14
4dd	Strumpf
4cc	an
4a	mein
=15	=15
[2.g	Bein.
=16	=16
4g]	.
4r}	.
==	==
!!!AGN: Tanz - Lied
!!!ONB: ESAC (Essen Associative Code) Database: ERK3
!!!AMT: simple triple
!!!AIN: vox
!!!EED: Helmut Schaffrath
!!!EEV: 1.0
!!!GTL: Tanz- und Spiellieder
!!!URL-scan: https://rosdok.uni-rostock.de/mcrviewer/recordIdentifier/rosdok_ppn745177662/iview2/phys_0772.iview2?x=-4.404412318551749&y=-169.637507093139&scale=0.6456904138606624&rotation=0&layout=singlePageLayout
!!!ENC: Anna Maria Matuszewska
!!!EEV: 2024/12/23
*-	*-
